X:1
T:I Wish I Was a Mole in the Ground
M:4/4
L:1/8
K:C
 z4 z2 A,2| EG AG E2 EE| C6 GA| cc dA/2-G/2 c2 GA| G6 A c/2c/2| ed c G3 A2|\
 cc AG E2 DC| EG AG E2 ED| C6 z2|
